X: 30
T:I Wanna Be Near You (Au pr\`es de ma blonde)
R: 20-bar jig for own dance
M:6/8
K:D
D|"D"F2G "A"F2E|"D"D3 D2F|"D"A2A "G"B2B|"D"A3-A2D|"D"F2G "A"F2E|"D"D3 D2F|
"D"A2A "G"B2B|"D"A3-A2A|"Bm"B2B B2F|"Em"G3-G2G|"A7"A2A A2E|"D3"F3 "A7"A3|"D3"D3 "A7"EFG|
"D"F3 A3|"Em"E2G "A7"F2E|"D"D2B, "A7"A,3|"D"D3 "A7"EFG|"D"F3 A3|"Em"E2G "A7"F2E|"D"D3-D2||
